packages/assets/static/images/icons/basket.svg

<svg width="24" height="24" viewBox="0 0 24 24" xmlns="http://www.w3.org/2000/svg">
<path d="M12.75 12.3735V17.6235C12.75 17.8224 12.671 18.0132 12.5303 18.1538C12.3897 18.2945 12.1989 18.3735 12 18.3735C11.8011 18.3735 11.6103 18.2945 11.4697 18.1538C11.329 18.0132 11.25 17.8224 11.25 17.6235V12.3735C11.25 12.1746 11.329 11.9838 11.4697 11.8431C11.6103 11.7025 11.8011 11.6235 12 11.6235C12.1989 11.6235 12.3897 11.7025 12.5303 11.8431C12.671 11.9838 12.75 12.1746 12.75 12.3735ZM16.2037 12.2985L15.6787 17.5485C15.6684 17.6468 15.6775 17.7461 15.7057 17.8409C15.7338 17.9356 15.7805 18.0239 15.8428 18.1005C15.9052 18.1772 15.9821 18.2408 16.0692 18.2876C16.1562 18.3345 16.2516 18.3636 16.35 18.3735C16.3753 18.3749 16.4006 18.3749 16.4259 18.3735C16.6117 18.3732 16.7908 18.3041 16.9285 18.1794C17.0661 18.0547 17.1527 17.8833 17.1712 17.6985L17.6962 12.4485C17.7161 12.2506 17.6566 12.0528 17.5307 11.8988C17.4048 11.7448 17.2229 11.6471 17.025 11.6272C16.8271 11.6073 16.6294 11.6669 16.4753 11.7928C16.3213 11.9186 16.2236 12.1006 16.2037 12.2985ZM7.79624 12.2985C7.77635 12.1006 7.67865 11.9186 7.52463 11.7928C7.37062 11.6669 7.17291 11.6073 6.97499 11.6272C6.77707 11.6471 6.59516 11.7448 6.46928 11.8988C6.34339 12.0528 6.28385 12.2506 6.30374 12.4485L6.82874 17.6985C6.84739 17.8841 6.93457 18.0561 7.07326 18.181C7.21194 18.3058 7.39216 18.3744 7.57874 18.3735C7.60403 18.3749 7.62938 18.3749 7.65468 18.3735C7.75268 18.3636 7.84778 18.3346 7.93455 18.288C8.02132 18.2414 8.09806 18.1781 8.16039 18.1019C8.22272 18.0256 8.26942 17.9378 8.29782 17.8435C8.32623 17.7492 8.33578 17.6502 8.32593 17.5522L7.79624 12.2985ZM22.4934 9.47285L21.0806 20.0722C21.0313 20.4319 20.8537 20.7617 20.5805 21.0009C20.3073 21.24 19.9568 21.3723 19.5937 21.3735H4.40624C4.04316 21.3723 3.69272 21.24 3.41949 21.0009C3.14626 20.7617 2.96865 20.4319 2.91936 20.0722L1.50655 9.47285C1.49239 9.3669 1.50104 9.25915 1.53191 9.15682C1.56279 9.05449 1.61518 8.95994 1.68558 8.87951C1.75598 8.79907 1.84276 8.73462 1.9401 8.69046C2.03744 8.64631 2.1431 8.62347 2.24999 8.62347H6.40968L11.4375 2.87941C11.5079 2.7996 11.5944 2.73569 11.6914 2.69191C11.7884 2.64813 11.8936 2.62549 12 2.62549C12.1064 2.62549 12.2116 2.64813 12.3086 2.69191C12.4056 2.73569 12.4921 2.7996 12.5625 2.87941L17.5903 8.62347H21.75C21.8569 8.62347 21.9625 8.64631 22.0599 8.69046C22.1572 8.73462 22.244 8.79907 22.3144 8.87951C22.3848 8.95994 22.4372 9.05449 22.4681 9.15682C22.4989 9.25915 22.5076 9.3669 22.4934 9.47285ZM8.4028 8.62347H15.5972L12 4.51253L8.4028 8.62347ZM20.8931 10.1235H3.10686L4.40624 19.8735H19.5937L20.8931 10.1235Z"/>
</svg>

<svg viewBox="0 0 24 24" xmlns="http://www.w3.org/2000/svg" aria-hidden="true" fill="currentColor"><path d="M12.75 12.374v5.25a.75.75 0 1 1-1.5 0v-5.25a.75.75 0 1 1 1.5 0m3.454-.075-.525 5.25a.75.75 0 0 0 .671.825h.076a.75.75 0 0 0 .745-.675l.525-5.25a.75.75 0 1 0-1.492-.15m-8.408 0a.75.75 0 1 0-1.492.15l.525 5.25a.75.75 0 0 0 .75.674q.037.003.076 0a.75.75 0 0 0 .67-.82zm14.697-2.826-1.412 10.6a1.506 1.506 0 0 1-1.487 1.3H4.406a1.506 1.506 0 0 1-1.487-1.3l-1.412-10.6a.75.75 0 0 1 .743-.85h4.16l5.028-5.744a.75.75 0 0 1 1.124 0l5.028 5.744h4.16a.75.75 0 0 1 .743.85m-14.09-.85h7.194L12 4.513zm12.49 1.5H3.107l1.3 9.75h15.187z"/></svg>
